X:6
T:Pady Carey. JGi.006
S:Joshua Gibbons MS,1823,Tealby,Lincs.
M:6/8
L:1/8
Q:3/8=120
R:Jig
O:Tealby,Lincolnshire
Z:VMP/R.Greig, 2009
K:C
GG2 cBc|e2c cBc|A2dd2e|f2d BAG|G2c cBc|e2c cBc|BAG GAB|cde d2c:|
c2eg2a|g2a gec|c2eg2a|gfe d2e|c2eg2a|g2a gec|BAG GAB|cded2c:|
f2d dcd|e2c cBc|B2cd2e|f2dB2g|f2d dcd|e2c cBc|BAG GAB|cde d2c:|
c2c c2a|g2a gec|c2c c2a|gfe d2e|c2cc2a|g2agec|BAG GAB|cded2c:|

